X:1
T:Neuroma No More
C:Frank Claudy <fclaudy@juno.com> irtrad-l 2000-05-08
M:4/4
L:1/8
K:D
AG|FAdA fAdA|~G2 eB gBeB|A2 ce a2 ^ga|ba^ga =geBG|
~F2 de (3fed cd|edef g2 ag|fa~a2 ba^ga|gece d2:||
c|B2 dB fB~B2|(3dcB fB dB~B2|~A3f eAfA|edcB (3AcA GE|
FAde (3fed cd|eGBe g2 ag|fa~a2 ba^ga|gece d2z:||
